assets/bold/chat-text-bold.svg

<svg id="Flat" xmlns="http://www.w3.org/2000/svg" viewBox="0 0 256.00098 256.00098">
  <path d="M216.00049,44.00049h-176a20.0226,20.0226,0,0,0-20,20V222.82422A19.81255,19.81255,0,0,0,31.55615,240.9541a20.0942,20.0942,0,0,0,8.49707,1.90186,19.86266,19.86266,0,0,0,12.81641-4.72217l31.08691-26.1333h132.044a20.0226,20.0226,0,0,0,20-20v-128A20.0226,20.0226,0,0,0,216.00049,44.00049Zm-4,144H81.67139a11.99919,11.99919,0,0,0-4.11133.72607l-3.68164,1.3418a12.00457,12.00457,0,0,0-3.61524,2.08984L44.00049,214.23584V68.00049h168ZM84.00049,108a12.00028,12.00028,0,0,1,12-12h64a12,12,0,0,1,0,24h-64A12.00028,12.00028,0,0,1,84.00049,108Zm0,40a12.00028,12.00028,0,0,1,12-12h64a12,12,0,0,1,0,24h-64A12.00028,12.00028,0,0,1,84.00049,148Z"/>
</svg>

<svg xmlns="http://www.w3.org/2000/svg" viewBox="0 0 256 256"><path d="M216,44H40A20.1,20.1,0,0,0,20,64V222.8A19.9,19.9,0,0,0,31.6,241a21,21,0,0,0,8.5,1.9,19.6,19.6,0,0,0,12.8-4.8L84,212H216a20.1,20.1,0,0,0,20-20V64A20.1,20.1,0,0,0,216,44Zm-4,144H81.7a11.4,11.4,0,0,0-4.1.7l-3.7,1.4a10,10,0,0,0-3.6,2.1L44,214.2V68H212ZM84,108A12,12,0,0,1,96,96h64a12,12,0,0,1,0,24H96A12,12,0,0,1,84,108Zm0,40a12,12,0,0,1,12-12h64a12,12,0,0,1,0,24H96A12,12,0,0,1,84,148Z"/></svg>
